X: 1
T: Ewe, The
M: 4/4
L: 1/8
R: reel
K: Gmaj
DGGF DGGE | =F2  AF cFAF | DGGF G2 eg | fdcA BGAF |
DGGF DGGE | =F2 AF cFAF | DGGF G2 eg | fdcA BG G2 :|
g2 bg dgbg | f2 af dfaf | g2 bg dgbg | agfa  g3 a |
 bgaf gfde | fefd cAGF | dggf gbag | fdcA G4 :|
